; generated by PrusaSlicer 2.3.3 on 2021-12-08 at 23:40:26 UTC

; 

; external perimeters extrusion width = 0.45mm
; perimeters extrusion width = 0.45mm
; infill extrusion width = 0.45mm
; solid infill extrusion width = 0.45mm
; top infill extrusion width = 0.40mm
; first layer extrusion width = 0.42mm

M73 P0 R183
M73 Q0 S183
M201 X1000 Y1000 Z200 E5000 ; sets maximum accelerations, mm/sec^2
M203 X200 Y200 Z12 E120 ; sets maximum feedrates, mm/sec
M204 P1250 R1250 T1250 ; sets acceleration (P, T) and retract acceleration (R), mm/sec^2
M205 X8.00 Y8.00 Z0.40 E4.50 ; sets the jerk limits, mm/sec
M205 S0 T0 ; sets the minimum extruding and travel feed rate, mm/sec
M107
;TYPE:Custom
M862.3 P "MK3S" ; printer model check
M862.1 P0.4 ; nozzle diameter check
M115 U3.10.0 ; tell printer latest fw version
G90 ; use absolute coordinates
M83 ; extruder relative mode
M104 S240 ; set extruder temp
M140 S85 ; set bed temp
M190 S85 ; wait for bed temp
M109 S240 ; wait for extruder temp
G28 W ; home all without mesh bed level
G80 ; mesh bed leveling
G1 Y-3.0 F1000.0 ; go outside print area
G92 E0.0
G1 X60.0 E9.0 F1000.0 ; intro line
G1 X100.0 E12.5 F1000.0 ; intro line
G92 E0.0
M221 S95

; Don't change E values below. Excessive value can damage the printer.
M907 E430 ; set extruder motor current
G21 ; set units to millimeters
G90 ; use absolute coordinates
M83 ; use relative distances for extrusion
M900 K0.08 ; Filament gcode LA 1.5
M900 K45 ; Filament gcode LA 1.0
;LAYER_CHANGE
;Z:0.2
;HEIGHT:0.2
;BEFORE_LAYER_CHANGE
G92 E0.0
;0.2


G1 E-1.00000 F2100.000
G1 Z0.200 F10800.000
;AFTER_LAYER_CHANGE
;0.2
; printing object onair-reflection-screen.stl id:0 copy 0
G1 Z0.400
G1 X15.804 Y44.487
G1 Z0.200
G1 E1.00000 F2100.000
M204 S1000
;TYPE:Perimeter
;WIDTH:0.42
G1 F1200.000
G1 X117.318 Y44.487 E3.18291
G1 X117.521 Y45.896 E0.04464
G1 X118.442 Y47.914 E0.06957
G1 X119.895 Y49.591 E0.06957
G1 X121.762 Y50.791 E0.06957
G1 X123.891 Y51.416 E0.06957
G1 X126.109 Y51.416 E0.06957
G1 X128.238 Y50.791 E0.06957
G1 X130.105 Y49.591 E0.06957
G1 X131.558 Y47.914 E0.06957
G1 X132.479 Y45.896 E0.06957
G1 X132.682 Y44.487 E0.04464
G1 X234.196 Y44.487 E3.18291
G1 X247.013 Y57.304 E0.56831
G1 X247.013 Y150.696 E2.92826
G1 X232.196 Y165.513 E0.65699
G1 X17.804 Y165.513 E6.72213
G1 X2.987 Y150.696 E0.65699
G1 X2.987 Y57.304 E2.92826
G1 X15.761 Y44.530 E0.56643
G1 X15.648 Y44.110 F10800.000
;TYPE:External perimeter
G1 F1200.000
G1 X117.645 Y44.110 E3.19805
G1 X117.886 Y45.789 E0.05318
G1 X118.763 Y47.708 E0.06617
G1 X120.145 Y49.303 E0.06617
G1 X121.920 Y50.444 E0.06617
G1 X123.945 Y51.039 E0.06617
G1 X126.055 Y51.039 E0.06617
G1 X128.080 Y50.444 E0.06617
G1 X129.855 Y49.303 E0.06617
G1 X131.237 Y47.708 E0.06617
G1 X132.114 Y45.789 E0.06617
G1 X132.355 Y44.110 E0.05318
G1 X234.352 Y44.110 E3.19805
M73 P0 R182
G1 X247.390 Y57.147 E0.57810
G1 X247.390 Y150.853 E2.93805
M73 Q0 S182
G1 X232.352 Y165.890 E0.66679
G1 X17.648 Y165.890 E6.73192
G1 X2.610 Y150.853 E0.66679
G1 X2.610 Y57.147 E2.93805
G1 X15.605 Y44.152 E0.57622
G1 X15.986 Y44.324 F10800.000
;WIPE_START
G1 F8640.000
G1 X19.719 Y44.151 E-0.95000
;WIPE_END
G1 E-0.05000 F2100.000
G1 Z0.400 F10800.000
G1 X246.900 Y57.591
G1 Z0.200
G1 E1.00000 F2100.000
;TYPE:Solid infill
;WIDTH:0.420138
G1 F1200.000
G1 X234.079 Y44.770 E0.56870
G1 X233.546 Y44.770 E0.01673
G1 X246.730 Y57.954 E0.58484
G1 X246.730 Y58.488 E0.01673
G1 X233.012 Y44.770 E0.60850
G1 X232.479 Y44.770 E0.01673
G1 X246.730 Y59.021 E0.63217
G1 X246.730 Y59.555 E0.01673
G1 X231.945 Y44.770 E0.65583
G1 X231.412 Y44.770 E0.01673
G1 X246.730 Y60.088 E0.67950
G1 X246.730 Y60.622 E0.01673
G1 X230.878 Y44.770 E0.70316
G1 X230.345 Y44.770 E0.01673
G1 X246.730 Y61.155 E0.72682
G1 X246.730 Y61.689 E0.01673
G1 X229.811 Y44.770 E0.75049
G1 X229.278 Y44.770 E0.01673
G1 X246.730 Y62.222 E0.77415
G1 X246.730 Y62.756 E0.01673
G1 X228.744 Y44.770 E0.79781
G1 X228.211 Y44.770 E0.01673
G1 X246.730 Y63.289 E0.82148
G1 X246.730 Y63.823 E0.01673
G1 X227.677 Y44.770 E0.84514
G1 X227.144 Y44.770 E0.01673
G1 X246.730 Y64.356 E0.86880
G1 X246.730 Y64.890 E0.01673
G1 X226.610 Y44.770 E0.89247
G1 X226.077 Y44.770 E0.01673
G1 X246.730 Y65.423 E0.91613
G1 X246.730 Y65.956 E0.01673
G1 X225.544 Y44.770 E0.93979
G1 X225.010 Y44.770 E0.01673
G1 X246.730 Y66.490 E0.96346
G1 X246.730 Y67.023 E0.01673
G1 X224.477 Y44.770 E0.98712
G1 X223.943 Y44.770 E0.01673
G1 X246.730 Y67.557 E1.01078
G1 X246.730 Y68.090 E0.01673
G1 X223.410 Y44.770 E1.03445
G1 X222.876 Y44.770 E0.01673
G1 X246.730 Y68.624 E1.05811
G1 X246.730 Y69.157 E0.01673
G1 X222.343 Y44.770 E1.08177
M73 P1 R182
M73 Q1 S182
G1 X221.809 Y44.770 E0.01673
G1 X246.730 Y69.691 E1.10544
M73 P1 R181
G1 X246.730 Y70.224 E0.01673
G1 X221.276 Y44.770 E1.12910
G1 X220.742 Y44.770 E0.01673
G1 X246.730 Y70.758 E1.15277
G1 X246.730 Y71.291 E0.01673
G1 X220.209 Y44.770 E1.17643
M73 Q1 S181
G1 X219.675 Y44.770 E0.01673
G1 X246.730 Y71.825 E1.20009
G1 X246.730 Y72.358 E0.01673
G1 X219.142 Y44.770 E1.22376
G1 X218.608 Y44.770 E0.01673
G1 X246.730 Y72.892 E1.24742
G1 X246.730 Y73.425 E0.01673
G1 X218.075 Y44.770 E1.27108
G1 X217.542 Y44.770 E0.01673
G1 X246.730 Y73.958 E1.29475
G1 X246.730 Y74.492 E0.01673
G1 X217.008 Y44.770 E1.31841
G1 X216.475 Y44.770 E0.01673
G1 X246.730 Y75.025 E1.34207
G1 X246.730 Y75.559 E0.01673
G1 X215.941 Y44.770 E1.36574
G1 X215.408 Y44.770 E0.01673
G1 X246.730 Y76.092 E1.38940
G1 X246.730 Y76.626 E0.01673
G1 X214.874 Y44.770 E1.41306
G1 X214.341 Y44.770 E0.01673
G1 X246.730 Y77.159 E1.43673
G1 X246.730 Y77.693 E0.01673
G1 X213.807 Y44.770 E1.46039
G1 X213.274 Y44.770 E0.01673
G1 X246.730 Y78.226 E1.48405
G1 X246.730 Y78.760 E0.01673
G1 X212.740 Y44.770 E1.50772
G1 X212.207 Y44.770 E0.01673
G1 X246.730 Y79.293 E1.53138
G1 X246.730 Y79.827 E0.01673
G1 X211.673 Y44.770 E1.55504
G1 X211.140 Y44.770 E0.01673
G1 X246.730 Y80.360 E1.57871
G1 X246.730 Y80.894 E0.01673
G1 X210.606 Y44.770 E1.60237
G1 X210.073 Y44.770 E0.01673
G1 X246.730 Y81.427 E1.62604
G1 X246.730 Y81.960 E0.01673
G1 X209.540 Y44.770 E1.64970
G1 X209.006 Y44.770 E0.01673
G1 X246.730 Y82.494 E1.67336
G1 X246.730 Y83.027 E0.01673
G1 X208.473 Y44.770 E1.69703
G1 X207.939 Y44.770 E0.01673
G1 X246.730 Y83.561 E1.72069
M73 P1 R180
G1 X246.730 Y84.094 E0.01673
G1 X207.406 Y44.770 E1.74435
G1 X206.872 Y44.770 E0.01673
G1 X246.730 Y84.628 E1.76802
M73 Q1 S180
G1 X246.730 Y85.161 E0.01673
G1 X206.339 Y44.770 E1.79168
G1 X205.805 Y44.770 E0.01673
G1 X246.730 Y85.695 E1.81534
G1 X246.730 Y86.228 E0.01673
G1 X205.272 Y44.770 E1.83901
G1 X204.738 Y44.770 E0.01673
G1 X246.730 Y86.762 E1.86267
G1 X246.730 Y87.295 E0.01673
G1 X204.205 Y44.770 E1.88633
G1 X203.671 Y44.770 E0.01673
G1 X246.730 Y87.829 E1.91000
G1 X246.730 Y88.362 E0.01673
G1 X203.138 Y44.770 E1.93366
G1 X202.604 Y44.770 E0.01673
G1 X246.730 Y88.896 E1.95732
G1 X246.730 Y89.429 E0.01673
G1 X202.071 Y44.770 E1.98099
G1 X201.538 Y44.770 E0.01673
G1 X246.730 Y89.962 E2.00465
G1 X246.730 Y90.496 E0.01673
G1 X201.004 Y44.770 E2.02831
G1 X200.471 Y44.770 E0.01673
G1 X246.730 Y91.029 E2.05198
G1 X246.730 Y91.563 E0.01673
G1 X199.937 Y44.770 E2.07564
G1 X199.404 Y44.770 E0.01673
G1 X246.730 Y92.096 E2.09930
M73 P2 R180
M73 Q2 S180
G1 X246.730 Y92.630 E0.01673
G1 X198.870 Y44.770 E2.12297
G1 X198.337 Y44.770 E0.01673
G1 X246.730 Y93.163 E2.14663
G1 X246.730 Y93.697 E0.01673
G1 X197.803 Y44.770 E2.17030
M73 P2 R179
G1 X197.270 Y44.770 E0.01673
G1 X246.730 Y94.230 E2.19396
G1 X246.730 Y94.764 E0.01673
G1 X196.736 Y44.770 E2.21762
M73 Q2 S179
G1 X196.203 Y44.770 E0.01673
G1 X246.730 Y95.297 E2.24129
G1 X246.730 Y95.831 E0.01673
G1 X195.669 Y44.770 E2.26495
G1 X195.136 Y44.770 E0.01673
G1 X246.730 Y96.364 E2.28861
G1 X246.730 Y96.898 E0.01673
G1 X194.602 Y44.770 E2.31228
G1 X194.069 Y44.770 E0.01673
G1 X246.730 Y97.431 E2.33594
G1 X246.730 Y97.964 E0.01673
G1 X193.536 Y44.770 E2.35960
G1 X193.002 Y44.770 E0.01673
G1 X246.730 Y98.498 E2.38327
G1 X246.730 Y99.031 E0.01673
G1 X192.469 Y44.770 E2.40693
G1 X191.935 Y44.770 E0.01673
G1 X246.730 Y99.565 E2.43059
G1 X246.730 Y100.098 E0.01673
G1 X191.402 Y44.770 E2.45426
G1 X190.868 Y44.770 E0.01673
G1 X246.730 Y100.632 E2.47792
G1 X246.730 Y101.165 E0.01673
G1 X190.335 Y44.770 E2.50158
G1 X189.801 Y44.770 E0.01673
G1 X246.730 Y101.699 E2.52525
G1 X246.730 Y102.232 E0.01673
G1 X189.268 Y44.770 E2.54891
M73 P2 R178
G1 X188.734 Y44.770 E0.01673
G1 X246.730 Y102.766 E2.57257
M73 Q2 S178
G1 X246.730 Y103.299 E0.01673
G1 X188.201 Y44.770 E2.59624
G1 X187.667 Y44.770 E0.01673
G1 X246.730 Y103.833 E2.61990
G1 X246.730 Y104.366 E0.01673
G1 X187.134 Y44.770 E2.64357
G1 X186.600 Y44.770 E0.01673
G1 X246.730 Y104.900 E2.66723
G1 X246.730 Y105.433 E0.01673
G1 X186.067 Y44.770 E2.69089
G1 X185.534 Y44.770 E0.01673
G1 X246.730 Y105.966 E2.71456
G1 X246.730 Y106.500 E0.01673
G1 X185.000 Y44.770 E2.73822
G1 X184.467 Y44.770 E0.01673
G1 X246.730 Y107.033 E2.76188
M73 P3 R178
M73 Q3 S178
G1 X246.730 Y107.567 E0.01673
G1 X183.933 Y44.770 E2.78555
G1 X183.400 Y44.770 E0.01673
G1 X246.730 Y108.100 E2.80921
G1 X246.730 Y108.634 E0.01673
G1 X182.866 Y44.770 E2.83287
G1 X182.333 Y44.770 E0.01673
G1 X246.730 Y109.167 E2.85654
G1 X246.730 Y109.701 E0.01673
G1 X181.799 Y44.770 E2.88020
M73 P3 R177
G1 X181.266 Y44.770 E0.01673
G1 X246.730 Y110.234 E2.90386
M73 Q3 S177
G1 X246.730 Y110.768 E0.01673
G1 X180.732 Y44.770 E2.92753
G1 X180.199 Y44.770 E0.01673
G1 X246.730 Y111.301 E2.95119
G1 X246.730 Y111.835 E0.01673
G1 X179.665 Y44.770 E2.97485
G1 X179.132 Y44.770 E0.01673
G1 X246.730 Y112.368 E2.99852
G1 X246.730 Y112.902 E0.01673
G1 X178.598 Y44.770 E3.02218
G1 X178.065 Y44.770 E0.01673
G1 X246.730 Y113.435 E3.04584
G1 X246.730 Y113.968 E0.01673
G1 X177.532 Y44.770 E3.06951
G1 X176.998 Y44.770 E0.01673
G1 X246.730 Y114.502 E3.09317
G1 X246.730 Y115.035 E0.01673
G1 X176.465 Y44.770 E3.11684
G1 X175.931 Y44.770 E0.01673
G1 X246.730 Y115.569 E3.14050
G1 X246.730 Y116.102 E0.01673
G1 X175.398 Y44.770 E3.16416
M73 P3 R176
G1 X174.864 Y44.770 E0.01673
G1 X246.730 Y116.636 E3.18783
M73 Q3 S176
G1 X246.730 Y117.169 E0.01673
G1 X174.331 Y44.770 E3.21149
G1 X173.797 Y44.770 E0.01673
G1 X246.730 Y117.703 E3.23515
G1 X246.730 Y118.236 E0.01673
G1 X173.264 Y44.770 E3.25882
G1 X172.730 Y44.770 E0.01673
G1 X246.730 Y118.770 E3.28248
M73 Q4 S176
G1 X246.730 Y119.303 E0.01673
G1 X172.197 Y44.770 E3.30614
M73 P4 R176
G1 X171.663 Y44.770 E0.01673
G1 X246.730 Y119.837 E3.32981
G1 X246.730 Y120.370 E0.01673
G1 X171.130 Y44.770 E3.35347
G1 X170.596 Y44.770 E0.01673
G1 X246.730 Y120.904 E3.37713
G1 X246.730 Y121.437 E0.01673
G1 X170.063 Y44.770 E3.40080
G1 X169.530 Y44.770 E0.01673
G1 X246.730 Y121.970 E3.42446
M73 P4 R175
G1 X246.730 Y122.504 E0.01673
G1 X168.996 Y44.770 E3.44812
G1 X168.463 Y44.770 E0.01673
G1 X246.730 Y123.037 E3.47179
M73 Q4 S175
G1 X246.730 Y123.571 E0.01673
G1 X167.929 Y44.770 E3.49545
G1 X167.396 Y44.770 E0.01673
G1 X246.730 Y124.104 E3.51911
G1 X246.730 Y124.638 E0.01673
G1 X166.862 Y44.770 E3.54278
G1 X166.329 Y44.770 E0.01673
G1 X246.730 Y125.171 E3.56644
G1 X246.730 Y125.705 E0.01673
G1 X165.795 Y44.770 E3.59010
G1 X165.262 Y44.770 E0.01673
G1 X246.730 Y126.238 E3.61377
G1 X246.730 Y126.772 E0.01673
G1 X164.728 Y44.770 E3.63743
G1 X164.195 Y44.770 E0.01673
G1 X246.730 Y127.305 E3.66110
G1 X246.730 Y127.839 E0.01673
G1 X163.661 Y44.770 E3.68476
M73 P4 R174
G1 X163.128 Y44.770 E0.01673
G1 X246.730 Y128.372 E3.70842
M73 Q4 S174
G1 X246.730 Y128.906 E0.01673
G1 X162.594 Y44.770 E3.73209
G1 X162.061 Y44.770 E0.01673
G1 X246.730 Y129.439 E3.75575
M73 P5 R174
M73 Q5 S174
G1 X246.730 Y129.972 E0.01673
G1 X161.528 Y44.770 E3.77941
G1 X160.994 Y44.770 E0.01673
G1 X246.730 Y130.506 E3.80308
G1 X246.730 Y131.039 E0.01673
G1 X160.461 Y44.770 E3.82674
G1 X159.927 Y44.770 E0.01673
G1 X246.730 Y131.573 E3.85040
G1 X246.730 Y132.106 E0.01673
G1 X159.394 Y44.770 E3.87407
G1 X158.860 Y44.770 E0.01673
G1 X246.730 Y132.640 E3.89773
G1 X246.730 Y133.173 E0.01673
G1 X158.327 Y44.770 E3.92139
M73 P5 R173
G1 X157.793 Y44.770 E0.01673
G1 X246.730 Y133.707 E3.94506
M73 Q5 S173
G1 X246.730 Y134.240 E0.01673
G1 X157.260 Y44.770 E3.96872
G1 X156.726 Y44.770 E0.01673
G1 X246.730 Y134.774 E3.99238
G1 X246.730 Y135.307 E0.01673
G1 X156.193 Y44.770 E4.01605
G1 X155.659 Y44.770 E0.01673
G1 X246.730 Y135.841 E4.03971
G1 X246.730 Y136.374 E0.01673
G1 X155.126 Y44.770 E4.06337
G1 X154.592 Y44.770 E0.01673
G1 X246.730 Y136.908 E4.08704
G1 X246.730 Y137.441 E0.01673
G1 X154.059 Y44.770 E4.11070
G1 X153.526 Y44.770 E0.01673
G1 X246.730 Y137.974 E4.13437
M73 P5 R172
G1 X246.730 Y138.508 E0.01673
G1 X152.992 Y44.770 E4.15803
M73 P6 R172
M73 Q6 S172
G1 X152.459 Y44.770 E0.01673
G1 X246.730 Y139.041 E4.18169
G1 X246.730 Y139.575 E0.01673
G1 X151.925 Y44.770 E4.20536
G1 X151.392 Y44.770 E0.01673
G1 X246.730 Y140.108 E4.22902
G1 X246.730 Y140.642 E0.01673
G1 X150.858 Y44.770 E4.25268
G1 X150.325 Y44.770 E0.01673
G1 X246.730 Y141.175 E4.27635
G1 X246.730 Y141.709 E0.01673
G1 X149.791 Y44.770 E4.30001
G1 X149.258 Y44.770 E0.01673
G1 X246.730 Y142.242 E4.32367
G1 X246.730 Y142.776 E0.01673
G1 X148.724 Y44.770 E4.34734
M73 P6 R171
G1 X148.191 Y44.770 E0.01673
G1 X246.730 Y143.309 E4.37100
M73 Q6 S171
G1 X246.730 Y143.843 E0.01673
G1 X147.657 Y44.770 E4.39466
G1 X147.124 Y44.770 E0.01673
G1 X246.730 Y144.376 E4.41833
G1 X246.730 Y144.910 E0.01673
G1 X146.590 Y44.770 E4.44199
G1 X146.057 Y44.770 E0.01673
G1 X246.730 Y145.443 E4.46565
G1 X246.730 Y145.976 E0.01673
G1 X145.524 Y44.770 E4.48932
G1 X144.990 Y44.770 E0.01673
G1 X246.730 Y146.510 E4.51298
G1 X246.730 Y147.043 E0.01673
G1 X144.457 Y44.770 E4.53664
M73 P7 R170
M73 Q7 S171
G1 X143.923 Y44.770 E0.01673
G1 X246.730 Y147.577 E4.56031
M73 Q7 S170
G1 X246.730 Y148.110 E0.01673
G1 X143.390 Y44.770 E4.58397
G1 X142.856 Y44.770 E0.01673
G1 X246.730 Y148.644 E4.60764
G1 X246.730 Y149.177 E0.01673
G1 X142.323 Y44.770 E4.63130
G1 X141.789 Y44.770 E0.01673
G1 X246.730 Y149.711 E4.65496
G1 X246.730 Y150.244 E0.01673
G1 X141.256 Y44.770 E4.67863
G1 X140.722 Y44.770 E0.01673
G1 X246.631 Y150.678 E4.69789
G1 X246.364 Y150.945 E0.01183
G1 X140.189 Y44.770 E4.70972
M73 P7 R169
G1 X139.655 Y44.770 E0.01673
G1 X246.097 Y151.212 E4.72155
M73 Q7 S169
G1 X245.831 Y151.479 E0.01183
G1 X139.122 Y44.770 E4.73338
G1 X138.588 Y44.770 E0.01673
G1 X245.564 Y151.745 E4.74521
G1 X245.297 Y152.012 E0.01183
G1 X138.055 Y44.770 E4.75704
G1 X137.522 Y44.770 E0.01673
G1 X245.030 Y152.279 E4.76888
G1 X244.764 Y152.546 E0.01183
G1 X136.988 Y44.770 E4.78071
G1 X136.455 Y44.770 E0.01673
G1 X244.497 Y152.812 E4.79254
M73 P8 R169
M73 Q8 S169
G1 X244.230 Y153.079 E0.01183
G1 X135.921 Y44.770 E4.80437
M73 P8 R168
G1 X135.388 Y44.770 E0.01673
G1 X243.964 Y153.346 E4.81620
M73 Q8 S168
G1 X243.697 Y153.612 E0.01183
G1 X134.854 Y44.770 E4.82804
G1 X134.321 Y44.770 E0.01673
G1 X243.430 Y153.879 E4.83987
G1 X243.163 Y154.146 E0.01183
G1 X133.787 Y44.770 E4.85170
G1 X133.254 Y44.770 E0.01673
G1 X242.897 Y154.413 E4.86353
G1 X242.630 Y154.679 E0.01183
G1 X132.901 Y44.951 E4.86734
G1 X132.834 Y45.417 E0.01478
G1 X242.363 Y154.946 E4.85849
G1 X242.096 Y155.213 E0.01183
G1 X132.767 Y45.883 E4.84963
M73 P8 R167
G1 X132.754 Y45.977 E0.00295
G1 X132.620 Y46.270 E0.01010
G1 X241.830 Y155.480 E4.84433
M73 Q8 S167
G1 X241.563 Y155.746 E0.01183
G1 X132.452 Y46.636 E4.83992
G1 X132.285 Y47.002 E0.01263
G1 X241.296 Y156.013 E4.83550
G1 X241.029 Y156.280 E0.01183
G1 X132.118 Y47.368 E4.83109
G1 X131.951 Y47.735 E0.01263
G1 X240.763 Y156.547 E4.82668
M73 P9 R167
M73 Q9 S167
G1 X240.496 Y156.813 E0.01183
G1 X131.776 Y48.094 E4.82257
G1 X131.529 Y48.380 E0.01186
G1 X240.229 Y157.080 E4.82173
G1 X239.963 Y157.347 E0.01183
G1 X131.281 Y48.665 E4.82088
M73 P9 R166
G1 X131.034 Y48.951 E0.01186
G1 X239.696 Y157.613 E4.82004
M73 Q9 S166
G1 X239.429 Y157.880 E0.01183
G1 X130.786 Y49.237 E4.81919
G1 X130.538 Y49.523 E0.01186
G1 X239.162 Y158.147 E4.81834
G1 X238.896 Y158.414 E0.01183
G1 X130.290 Y49.808 E4.81752
G1 X129.965 Y50.017 E0.01211
G1 X238.629 Y158.680 E4.82009
G1 X238.362 Y158.947 E0.01183
G1 X129.641 Y50.226 E4.82266
